;FLAVOR:Marlin
;TIME:11739
;Filament used: 22.9435m
;Layer height: 0.3
;Generated with Cura_SteamEngine 3.6.0
M104 S200
M105
M109 S200
M82 ;absolute extrusion mode
G28 ;Home
G1 Z15.0 F6000 ;Move the platform down 15mm
;Prime the extruder
G92 E0
G1 F200 E3
G92 E0
G92 E0
G1 F1500 E-6.5
;LAYER_COUNT:30
;LAYER:-6
M107
G0 F7200 X80.973 Y28.265 Z0.36
;TYPE:SUPPORT-INTERFACE
G1 F1500 E0
G1 F1012.5 X169.027 Y28.265 E15.81491
G1 X223.142 Y84.927 E29.88728
G1 X223.143 Y116.802 E35.61218
G1 X223.103 Y116.796 E35.61945
G1 X211.743 Y151.735 E42.21802
G1 X38.257 Y151.735 E73.37692
G1 X26.897 Y116.796 E79.97549
G1 X26.858 Y116.802 E79.98258
G1 X26.857 Y84.928 E85.7073
G1 X80.973 Y28.265 E99.77992
G0 F7200 X70.486 Y52.106
G1 F1012.5 X67.174 Y56.379 E100.75091
G1 X64.26 Y60.716 E101.68935
G1 X61.854 Y64.96 E102.56557
G1 X60.047 Y68.951 E103.35242
G1 X58.907 Y72.553 E104.03098
G1 X58.488 Y75.654 E104.593
G1 X58.844 Y78.174 E105.0501
G1 X60.06 Y79.984 E105.44173
G1 X62.063 Y80.843 E105.83317
G1 X64.605 Y80.726 E106.2902
G1 X67.574 Y79.739 E106.85214
G1 X70.903 Y77.953 E107.53066
G1 X74.492 Y75.438 E108.31778
G1 X78.215 Y72.287 E109.19379
G1 X81.94 Y68.62 E110.1326
G1 X85.524 Y64.574 E111.10338
G1 X88.837 Y60.301 E112.07449
G1 X91.751 Y55.963 E113.01308
G1 X94.157 Y51.72 E113.88913
G1 X95.964 Y47.729 E114.67598
G1 X97.104 Y44.127 E115.35455
G1 X97.523 Y41.026 E115.91656
G1 X97.167 Y38.506 E116.37366
G1 X95.951 Y36.696 E116.7653
G1 X93.948 Y35.837 E117.15673
G1 X91.406 Y35.953 E117.61376
G1 X88.436 Y36.94 E118.17587
G1 X85.108 Y38.727 E118.85432
G1 X81.519 Y41.242 E119.64143
G1 X77.795 Y44.393 E120.51758
G1 X74.071 Y48.059 E121.45614
G1 X70.486 Y52.106 E122.42717
G0 F7200 X64.82 Y61.067
G0 X62.441 Y65.263
G0 X60.664 Y69.189
G0 X59.554 Y72.698
G0 X59.155 Y75.651
G0 X59.478 Y77.931
G0 X60.501 Y79.452
G0 X62.184 Y80.175
G0 X64.046 Y80.091
G0 X72.185 Y79.25
G1 F1012.5 X71.764 Y79.763 E122.54637
G1 X71.451 Y80.348 E122.66553
G1 X71.258 Y80.983 E122.78473
G1 X71.193 Y81.644 E122.90402
G1 X71.258 Y82.305 E123.02331
G1 X71.451 Y82.94 E123.14251
G1 X71.764 Y83.525 E123.26167
G1 X72.185 Y84.038 E123.38087
G1 X72.698 Y84.459 E123.50006
G1 X73.283 Y84.772 E123.61922
G1 X73.918 Y84.964 E123.73837
G1 X74.579 Y85.03 E123.85768
G1 X75.24 Y84.964 E123.97699
G1 X75.875 Y84.772 E124.09614
G1 X76.46 Y84.459 E124.2153
G1 X76.973 Y84.038 E124.33449
G1 X77.394 Y83.525 E124.45368
G1 X77.707 Y82.94 E124.57284
G1 X77.9 Y82.305 E124.69204
G1 X77.965 Y81.644 E124.81134
G1 X77.9 Y80.983 E124.93063
G1 X77.707 Y80.348 E125.04983
G1 X77.394 Y79.763 E125.16899
G1 X76.973 Y79.25 E125.28818
G1 X76.46 Y78.828 E125.40749
G1 X75.89 Y78.525 E125.52343
G1 X75.242 Y78.323 E125.64534
G1 X74.579 Y78.258 E125.76498
G1 X73.918 Y78.323 E125.88428
G1 X73.283 Y78.516 E126.00348
G1 X72.698 Y78.829 E126.12264
G1 X72.185 Y79.25 E126.24183
G0 F7200 X71.857 Y81.644
G0 X71.909 Y82.175
G0 X72.035 Y82.589
G0 X77.297 Y91.829
G1 F1012.5 X71.944 Y97.725 E127.67211
G1 X68.627 Y104.164 E128.97302
G1 X67.502 Y110.89 E130.19782
G1 X68.627 Y117.617 E131.4228
G1 X71.944 Y124.055 E132.72355
G1 X77.297 Y129.952 E134.15396
G1 X84.465 Y135.096 E135.73857
G1 X93.172 Y139.303 E137.47536
G1 X103.086 Y142.424 E139.34211
G1 X113.831 Y144.343 E141.3025
G1 X125 Y144.991 E143.31188
G1 X136.169 Y144.343 E145.32126
G1 X146.914 Y142.424 E147.28165
G1 X156.828 Y139.303 E149.1484
G1 X165.535 Y135.096 E150.88519
G1 X172.703 Y129.952 E152.4698
G1 X178.056 Y124.055 E153.90022
G1 X181.373 Y117.617 E155.20096
G1 X182.498 Y110.89 E156.42594
G1 X181.373 Y104.164 E157.65074
G1 X178.056 Y97.725 E158.95165
G1 X172.703 Y91.829 E160.38193
G1 X165.535 Y86.684 E161.96664
G1 X156.828 Y82.477 E163.70344
G1 X146.914 Y79.356 E165.57019
G1 X136.169 Y77.437 E167.53057
G1 X125 Y76.789 E169.53995
G1 X113.831 Y77.437 E171.54933
G1 X103.086 Y79.356 E173.50972
G1 X93.172 Y82.477 E175.37647
G1 X84.465 Y86.684 E177.11326
G1 X77.297 Y91.829 E178.69798
G0 F7200 X43.248 Y102.924
G1 F1012.5 X42.662 Y103.237 E178.8173
G1 X42.149 Y103.658 E178.93649
G1 X41.729 Y104.171 E179.05557
G1 X41.415 Y104.756 E179.17482
G1 X41.223 Y105.392 E179.29414
G1 X41.158 Y106.052 E179.41325
G1 X41.223 Y106.712 E179.53236
G1 X41.415 Y107.348 E179.65168
G1 X41.729 Y107.933 E179.77093
G1 X42.149 Y108.446 E179.89001
G1 X42.662 Y108.867 E180.0092
G1 X43.249 Y109.18 E180.12868
G1 X43.866 Y109.367 E180.24447
G1 X44.523 Y109.435 E180.3631
G1 X45.183 Y109.376 E180.48211
G1 X45.819 Y109.187 E180.60128
G1 X46.407 Y108.878 E180.72058
G1 X46.922 Y108.46 E180.83971
G1 X47.346 Y107.95 E180.95883
G1 X47.662 Y107.366 E181.07809
G1 X47.864 Y106.715 E181.20051
G1 X47.93 Y106.052 E181.32018
G1 X47.864 Y105.391 E181.43949
G1 X47.672 Y104.756 E181.55864
G1 X47.359 Y104.171 E181.6778
G1 X46.937 Y103.658 E181.7971
G1 X46.425 Y103.237 E181.91616
G1 X45.84 Y102.924 E182.03532
G1 X45.205 Y102.731 E182.15452
G1 X44.544 Y102.666 E182.27381
G1 X43.883 Y102.731 E182.3931
G1 X43.248 Y102.924 E182.5123
G0 F7200 X42.03 Y105.008
G0 X41.874 Y105.521
G0 X41.822 Y106.052
G0 X41.874 Y106.583
G0 X42 Y106.997
G0 X49.099 Y119.771
G1 F1012.5 X47.988 Y120.579 E182.75904
G1 X47.495 Y121.863 E183.00606
G1 X47.623 Y123.4 E183.28307
G1 X48.268 Y125.119 E183.61283
G1 X49.374 Y127.004 E184.00536
G1 X50.897 Y129.009 E184.45757
G1 X52.78 Y131.073 E184.95937
G1 X54.958 Y133.122 E185.49645
G1 X57.347 Y135.082 E186.05145
G1 X59.859 Y136.882 E186.60649
G1 X62.402 Y138.453 E187.14335
G1 X64.883 Y139.738 E187.64517
G1 X67.215 Y140.689 E188.0975
G1 X69.322 Y141.268 E188.48995
G1 X71.15 Y141.445 E188.8198
G1 X72.667 Y141.172 E189.09664
G1 X73.778 Y140.363 E189.34348
G1 X74.272 Y139.08 E189.5904
G1 X74.143 Y137.543 E189.86743
G1 X73.499 Y135.823 E190.19729
G1 X72.392 Y133.939 E190.58975
G1 X70.87 Y131.933 E191.04201
G1 X68.986 Y129.87 E191.54379
G1 X66.809 Y127.82 E192.08086
G1 X64.42 Y125.86 E192.63586
G1 X61.908 Y124.06 E193.1909
G1 X59.365 Y122.49 E193.72767
G1 X56.884 Y121.204 E194.22957
G1 X54.552 Y120.253 E194.6819
G1 X52.445 Y119.674 E195.07435
G1 X50.617 Y119.497 E195.40421
G1 X49.099 Y119.771 E195.68125
G0 F7200 X43.248 Y132.082
G1 F1012.5 X42.662 Y132.395 E195.80057
G1 X42.149 Y132.816 E195.91976
G1 X41.729 Y133.329 E196.03884
G1 X41.415 Y133.914 E196.15809
G1 X41.223 Y134.55 E196.27741
G1 X41.158 Y135.21 E196.39652
G1 X41.223 Y135.87 E196.51563
G1 X41.415 Y136.506 E196.63495
G1 X41.729 Y137.091 E196.7542
G1 X42.149 Y137.604 E196.87328
G1 X42.648 Y138.015 E196.98939
G1 X43.231 Y138.328 E197.10824
G1 X43.881 Y138.53 E197.23049
G1 X44.544 Y138.596 E197.35015
G1 X45.205 Y138.53 E197.46946
G1 X45.84 Y138.338 E197.58861
G1 X46.425 Y138.025 E197.70777
G1 X46.938 Y137.604 E197.82696
G1 X47.359 Y137.091 E197.94616
G1 X47.672 Y136.506 E198.06532
G1 X47.864 Y135.871 E198.18447
G1 X47.93 Y135.21 E198.30378
G1 X47.864 Y134.549 E198.42308
G1 X47.672 Y133.914 E198.54223
G1 X47.359 Y133.329 E198.6614
G1 X46.938 Y132.816 E198.78059
G1 X46.425 Y132.395 E198.89978
G1 X45.84 Y132.082 E199.01894
G1 X45.205 Y131.889 E199.13814
G1 X44.544 Y131.824 E199.25743
G1 X43.883 Y131.889 E199.37672
G1 X43.248 Y132.082 E199.49593
G0 F7200 X41.822 Y106.052
G0 X42.751 Y81.113
G0 X43.54 Y78.829
G1 F1012.5 X43.027 Y79.25 E199.61512
G1 X42.606 Y79.763 E199.73431
G1 X42.293 Y80.348 E199.85347
G1 X42.1 Y80.983 E199.97267
G1 X42.035 Y81.644 E200.09196
G1 X42.1 Y82.305 E200.21125
G1 X42.293 Y82.94 E200.33046
G1 X42.606 Y83.525 E200.44962
G1 X43.026 Y84.038 E200.5687
G1 X43.527 Y84.449 E200.68508
G1 X44.142 Y84.777 E200.81027
G1 X44.76 Y84.964 E200.92623
G1 X45.421 Y85.03 E201.04554
G1 X46.082 Y84.964 E201.16485
G1 X46.717 Y84.772 E201.284
G1 X47.302 Y84.459 E201.40316
G1 X47.815 Y84.038 E201.52235
G1 X48.236 Y83.525 E201.64154
G1 X48.549 Y82.94 E201.76071
G1 X48.742 Y82.305 E201.87991
G1 X48.807 Y81.644 E201.9992
G1 X48.742 Y80.983 E202.11849
G1 X48.549 Y80.348 E202.23769
G1 X48.236 Y79.763 E202.35685
G1 X47.815 Y79.25 E202.47605
G1 X47.302 Y78.829 E202.59524
G1 X46.717 Y78.516 E202.7144
G1 X46.082 Y78.323 E202.8336
G1 X45.421 Y78.258 E202.95289
G1 X44.76 Y78.323 E203.07218
G1 X44.125 Y78.516 E203.19138
G1 X43.54 Y78.829 E203.31055
G0 F7200 X60.501 Y79.452
G0 X62.184 Y80.175
G0 X64.483 Y80.07
G0 X66.775 Y79.309
G0 X108.028 Y62.612
G1 F1012.5 X107.808 Y63.017 E203.39332
G1 X107.672 Y63.457 E203.47604
G1 X107.623 Y63.915 E203.55877
G1 X107.664 Y64.374 E203.64154
G1 X107.796 Y64.817 E203.72456
G1 X108.01 Y65.225 E203.8073
G1 X108.3 Y65.583 E203.89005
G1 X108.655 Y65.877 E203.97284
G1 X109.061 Y66.098 E204.05586
G1 X109.501 Y66.234 E204.13858
G1 X109.958 Y66.282 E204.22111
G1 X110.417 Y66.241 E204.30387
G1 X110.86 Y66.111 E204.38679
G1 X111.269 Y65.895 E204.46987
G1 X111.628 Y65.604 E204.55287
G1 X111.92 Y65.25 E204.63529
G1 X112.14 Y64.846 E204.71791
G1 X112.278 Y64.404 E204.80107
G1 X112.325 Y63.947 E204.88358
G1 X112.286 Y63.489 E204.96614
G1 X112.153 Y63.044 E205.04956
G1 X111.938 Y62.637 E205.13223
G1 X111.649 Y62.279 E205.21486
G1 X111.294 Y61.985 E205.29765
G1 X110.888 Y61.764 E205.38067
G1 X110.448 Y61.628 E205.46339
G1 X109.99 Y61.58 E205.5461
G1 X109.532 Y61.621 E205.62869
G1 X109.089 Y61.751 E205.71161
G1 X108.68 Y61.967 E205.79468
G1 X108.322 Y62.257 E205.87743
G1 X108.028 Y62.612 E205.96021
G0 F7200 X115.204 Y44.81
G1 F1012.5 X114.601 Y46.799 E206.3335
G1 X114.397 Y48.868 E206.70691
G1 X114.601 Y50.937 E207.08031
G1 X115.204 Y52.926 E207.4536
G1 X116.184 Y54.759 E207.82691
G1 X117.503 Y56.365 E208.20017
G1 X119.109 Y57.684 E208.57343
G1 X120.942 Y58.664 E208.94674
G1 X122.931 Y59.267 E209.32003
G1 X125 Y59.471 E209.69344
G1 X127.069 Y59.267 E210.06684
G1 X129.058 Y58.664 E210.44013
G1 X130.891 Y57.684 E210.81345
G1 X132.497 Y56.365 E211.1867
G1 X133.816 Y54.759 E211.55996
G1 X134.796 Y52.926 E211.93328
G1 X135.399 Y50.937 E212.30657
G1 X135.603 Y48.868 E212.67997
G1 X135.399 Y46.799 E213.05337
G1 X134.796 Y44.81 E213.42666
G1 X133.816 Y42.977 E213.79998
G1 X132.497 Y41.371 E214.17324
G1 X130.891 Y40.052 E214.54649
G1 X129.058 Y39.072 E214.91981
G1 X127.069 Y38.469 E215.2931
G1 X125 Y38.265 E215.6665
G1 X122.931 Y38.469 E216.03991
G1 X120.942 Y39.072 E216.41319
G1 X119.109 Y40.052 E216.78651
G1 X117.503 Y41.371 E217.15977
G1 X116.184 Y42.977 E217.53302
G1 X115.204 Y44.81 E217.90634
G0 F7200 X107.672 Y33.371
G1 F1012.5 X107.623 Y33.829 E217.98907
G1 X107.664 Y34.288 E218.07183
G1 X107.796 Y34.731 E218.15486
G1 X108.009 Y35.138 E218.23736
G1 X108.3 Y35.498 E218.3205
G1 X108.656 Y35.792 E218.40342
G1 X109.061 Y36.012 E218.4862
G1 X109.501 Y36.148 E218.56892
G1 X109.958 Y36.196 E218.65145
G1 X110.417 Y36.155 E218.73422
G1 X110.86 Y36.025 E218.81714
G1 X111.268 Y35.81 E218.89997
G1 X111.628 Y35.519 E218.98311
G1 X111.921 Y35.163 E219.06592
G1 X112.14 Y34.76 E219.14829
G1 X112.278 Y34.318 E219.23146
G1 X112.325 Y33.861 E219.31397
G1 X112.286 Y33.403 E219.39653
G1 X112.153 Y32.958 E219.47995
G1 X111.938 Y32.551 E219.56262
G1 X111.649 Y32.193 E219.64525
G1 X111.294 Y31.899 E219.72804
G1 X110.888 Y31.678 E219.81106
G1 X110.448 Y31.542 E219.89378
G1 X109.99 Y31.494 E219.97649
G1 X109.532 Y31.535 E220.05907
G1 X109.089 Y31.665 E220.14199
G1 X108.68 Y31.881 E220.22507
G1 X108.322 Y32.171 E220.30781
G1 X108.028 Y32.526 E220.3906
G1 X107.808 Y32.931 E220.47338
G1 X107.672 Y33.371 E220.55609
G0 F7200 X109.338 Y32.28
G0 X109.864 Y32.181
G0 X137.672 Y33.457
G1 F1012.5 X137.623 Y33.915 E220.63882
G1 X137.664 Y34.374 E220.72159
G1 X137.796 Y34.817 E220.80461
G1 X138.01 Y35.225 E220.88736
G1 X138.3 Y35.583 E220.97011
G1 X138.655 Y35.877 E221.05289
G1 X139.061 Y36.098 E221.13591
G1 X139.501 Y36.234 E221.21863
G1 X139.958 Y36.282 E221.30116
G1 X140.417 Y36.241 E221.38393
G1 X140.86 Y36.111 E221.46685
G1 X141.269 Y35.895 E221.54992
G1 X141.628 Y35.604 E221.63292
G1 X141.92 Y35.25 E221.71534
G1 X142.14 Y34.846 E221.79796
G1 X142.278 Y34.404 E221.88113
G1 X142.325 Y33.947 E221.96364
G1 X142.286 Y33.489 E222.04619
G1 X142.153 Y33.044 E222.12961
G1 X141.938 Y32.637 E222.21228
G1 X141.649 Y32.279 E222.29492
G1 X141.294 Y31.985 E222.3777
G1 X140.888 Y31.764 E222.46073
G1 X140.448 Y31.628 E222.54344
G1 X139.99 Y31.58 E222.62615
G1 X139.532 Y31.621 E222.70874
G1 X139.089 Y31.751 E222.79166
G1 X138.68 Y31.967 E222.87473
G1 X138.322 Y32.257 E222.95748
G1 X138.028 Y32.612 E223.04027
G1 X137.808 Y33.017 E223.12305
G1 X137.672 Y33.457 E223.20576
G0 F7200 X138.773 Y35.117
G0 X139.318 Y35.484
G0 X152.833 Y38.506
G1 F1012.5 X152.477 Y41.026 E223.66286
G1 X152.896 Y44.127 E224.22487
G1 X154.036 Y47.729 E224.90344
G1 X155.843 Y51.72 E225.69029
G1 X158.249 Y55.963 E226.56635
G1 X161.163 Y60.301 E227.50494
G1 X164.476 Y64.574 E228.47604
G1 X168.06 Y68.62 E229.44682
G1 X171.785 Y72.287 E230.38563
G1 X175.508 Y75.438 E231.26165
G1 X179.097 Y77.953 E232.04876
G1 X182.426 Y79.739 E232.72728
G1 X185.395 Y80.726 E233.28922
G1 X187.937 Y80.843 E233.74626
G1 X189.94 Y79.984 E234.13769
G1 X191.156 Y78.174 E234.52933
G1 X191.512 Y75.654 E234.98642
G1 X191.093 Y72.553 E235.54844
G1 X189.953 Y68.951 E236.227
G1 X188.146 Y64.96 E237.01386
G1 X185.74 Y60.716 E237.89007
G1 X182.826 Y56.378 E238.82866
G1 X179.514 Y52.106 E239.79951
G1 X175.929 Y48.059 E240.77055
G1 X172.205 Y44.393 E241.7091
G1 X168.481 Y41.242 E242.58525
G1 X164.892 Y38.727 E243.37237
G1 X161.564 Y36.94 E244.05081
G1 X158.594 Y35.953 E244.61292
G1 X156.052 Y35.837 E245.06995
G1 X154.049 Y36.696 E245.46139
G1 X152.833 Y38.506 E245.85302
G0 F7200 X146.738 Y61.494
G1 F1012.5 X146.602 Y61.934 E245.93574
G1 X146.554 Y62.392 E246.01845
G1 X146.595 Y62.85 E246.10103
G1 X146.725 Y63.294 E246.18413
G1 X146.941 Y63.702 E246.26704
G1 X147.231 Y64.06 E246.34979
G1 X147.586 Y64.354 E246.43257
G1 X147.991 Y64.575 E246.51544
G1 X148.432 Y64.711 E246.59833
G1 X148.889 Y64.759 E246.68086
G1 X149.347 Y64.718 E246.76344
G1 X149.791 Y64.588 E246.84654
G1 X150.199 Y64.372 E246.92945
G1 X150.557 Y64.082 E247.0122
G1 X150.851 Y63.727 E247.09499
G1 X151.072 Y63.322 E247.17785
G1 X151.208 Y62.881 E247.26074
G1 X151.256 Y62.424 E247.34327
G1 X151.215 Y61.965 E247.42603
G1 X151.084 Y61.522 E247.50901
G1 X150.869 Y61.114 E247.59184
G1 X150.579 Y60.755 E247.67472
G1 X150.224 Y60.462 E247.75739
G1 X149.82 Y60.242 E247.84002
G1 X149.378 Y60.104 E247.92318
G1 X148.921 Y60.057 E248.00569
G1 X148.463 Y60.096 E248.08825
G1 X148.018 Y60.229 E248.17167
G1 X147.611 Y60.444 E248.25434
G1 X147.253 Y60.733 E248.33697
G1 X146.959 Y61.089 E248.4199
G1 X146.738 Y61.494 E248.50276
G0 F7200 X146.738 Y67.99
G1 F1012.5 X146.602 Y68.43 E248.58548
G1 X146.554 Y68.887 E248.66801
G1 X146.595 Y69.346 E248.75078
G1 X146.725 Y69.789 E248.8337
G1 X146.941 Y70.198 E248.91677
G1 X147.232 Y70.557 E248.99977
G1 X147.586 Y70.849 E249.08219
G1 X147.99 Y71.069 E249.16481
G1 X148.432 Y71.207 E249.24797
G1 X148.889 Y71.254 E249.33049
G1 X149.347 Y71.215 E249.41304
G1 X149.792 Y71.082 E249.49646
G1 X150.199 Y70.867 E249.57913
G1 X150.557 Y70.578 E249.66177
G1 X150.851 Y70.223 E249.74455
G1 X151.072 Y69.817 E249.82758
G1 X151.208 Y69.377 E249.91029
G1 X151.256 Y68.919 E249.993
G1 X151.215 Y68.461 E250.07559
G1 X151.085 Y68.018 E250.15851
G1 X150.869 Y67.609 E250.24158
G1 X150.579 Y67.251 E250.32433
G1 X150.224 Y66.957 E250.40711
G1 X149.819 Y66.737 E250.48989
G1 X149.379 Y66.601 E250.57261
G1 X148.921 Y66.552 E250.65534
G1 X148.462 Y66.593 E250.7381
G1 X148.019 Y66.725 E250.82113
G1 X147.611 Y66.939 E250.90387
G1 X147.253 Y67.229 E250.98662
G1 X146.959 Y67.584 E251.06941
G1 X146.738 Y67.99 E251.15243
G0 F7200 X139.318 Y65.484
G0 X138.773 Y65.117
G0 X138.48 Y64.673
G0 X137.808 Y63.017
G1 F1012.5 X137.672 Y63.457 E251.23514
G1 X137.623 Y63.915 E251.31787
G1 X137.664 Y64.374 E251.40064
G1 X137.796 Y64.817 E251.48366
G1 X138.01 Y65.225 E251.56641
G1 X138.3 Y65.583 E251.64916
G1 X138.655 Y65.877 E251.73194
G1 X139.061 Y66.098 E251.81496
G1 X139.501 Y66.234 E251.89768
G1 X139.958 Y66.282 E251.98021
G1 X140.417 Y66.241 E252.06298
G1 X140.86 Y66.111 E252.1459
G1 X141.269 Y65.895 E252.22897
G1 X141.628 Y65.604 E252.31197
G1 X141.92 Y65.25 E252.39439
G1 X142.14 Y64.846 E252.47701
G1 X142.278 Y64.404 E252.56018
G1 X142.325 Y63.947 E252.64269
G1 X142.286 Y63.489 E252.72524
