;FLAVOR:Marlin
;TIME:582
;Filament used: 0.503824m
;Layer height: 0.3
;Generated with Cura_SteamEngine 3.6.0
M104 S200
M105
M109 S200
M82 ;absolute extrusion mode
G28 ;Home
G1 Z15.0 F6000 ;Move the platform down 15mm
;Prime the extruder
G92 E0
G1 F200 E3
G92 E0
G92 E0
G1 F1500 E-6.5
;LAYER_COUNT:108
;LAYER:-6
M106 S224.4
G0 F7200 X116.912 Y101.857 Z0.36
;TYPE:SUPPORT-INTERFACE
G1 F1500 E0
G1 F1012.5 X129.088 Y101.857 E2.18687
G1 X129.088 Y110.143 E3.67507
G1 X127.452 Y110.143 E3.96891
G1 X127.687 Y110.017 E4.0168
G1 X128.044 Y109.724 E4.09975
G1 X128.336 Y109.368 E4.18244
G1 X128.554 Y108.962 E4.26521
G1 X128.687 Y108.519 E4.34828
G1 X128.733 Y108.061 E4.43095
G1 X128.687 Y107.603 E4.51363
G1 X128.554 Y107.16 E4.5967
G1 X128.336 Y106.754 E4.67947
G1 X128.044 Y106.398 E4.76216
G1 X127.687 Y106.105 E4.84511
G1 X127.281 Y105.887 E4.92788
G1 X126.839 Y105.754 E5.01078
G1 X126.38 Y105.708 E5.09363
G1 X125.922 Y105.754 E5.1763
G1 X125.479 Y105.887 E5.25938
G1 X125.072 Y106.105 E5.3423
G1 X124.717 Y106.398 E5.42497
G1 X124.424 Y106.753 E5.50765
G1 X124.206 Y107.16 E5.59057
G1 X124.073 Y107.603 E5.67364
G1 X124.027 Y108.061 E5.75632
G1 X124.073 Y108.519 E5.83899
G1 X124.206 Y108.962 E5.92206
G1 X124.424 Y109.369 E6.00499
G1 X124.717 Y109.724 E6.08766
G1 X125.072 Y110.017 E6.17033
G1 X125.307 Y110.143 E6.21822
G1 X120.956 Y110.143 E6.99968
G1 X121.192 Y110.017 E7.04773
G1 X121.548 Y109.724 E7.13054
G1 X121.841 Y109.368 E7.21335
G1 X122.058 Y108.962 E7.29603
G1 X122.192 Y108.52 E7.37899
G1 X122.238 Y108.061 E7.46184
G1 X122.192 Y107.602 E7.54469
G1 X122.058 Y107.16 E7.62764
G1 X121.841 Y106.754 E7.71032
G1 X121.548 Y106.398 E7.79314
G1 X121.192 Y106.105 E7.87595
G1 X120.784 Y105.887 E7.95903
G1 X120.344 Y105.754 E8.04159
G1 X119.885 Y105.708 E8.12444
G1 X119.426 Y105.754 E8.20729
G1 X118.985 Y105.887 E8.29002
G1 X118.577 Y106.105 E8.3731
G1 X118.221 Y106.398 E8.45591
G1 X117.928 Y106.754 E8.53872
G1 X117.711 Y107.16 E8.6214
G1 X117.577 Y107.603 E8.70453
G1 X117.532 Y108.061 E8.78718
G1 X117.577 Y108.519 E8.86984
G1 X117.711 Y108.962 E8.95296
G1 X117.928 Y109.368 E9.03565
G1 X118.221 Y109.724 E9.11846
G1 X118.577 Y110.017 E9.20127
G1 X118.813 Y110.143 E9.24932
G1 X116.912 Y110.143 E9.59074
G1 X116.912 Y101.857 E11.07895
G0 F7200 X117.6 Y101.857
G1 F1012.5 X117.6 Y107.527 E12.09731
G0 F7200 X117.6 Y108.596
G1 F1012.5 X117.6 Y110.143 E12.37516
G0 F7200 X122.4 Y110.143
G1 F1012.5 X122.4 Y101.857 E13.86336
G0 F7200 X120 Y101.857
G1 F1012.5 X120 Y105.719 E14.55699
G0 F7200 X124.8 Y106.33
G1 F1012.5 X124.8 Y101.857 E15.36037
G0 F7200 X127.2 Y101.857
G1 F1012.5 X127.2 Y105.862 E16.07968
G0 F7200 X125.443 Y106.655
G0 X124.974 Y107.124
G0 X124.724 Y107.732
G0 X124.724 Y107.918
G0 X124.8 Y109.793
G1 F1012.5 X124.8 Y110.143 E16.14255
G0 F7200 X121.22 Y107.004
G0 X119.595 Y105.736
;TIME_ELAPSED:14.370507
;LAYER:-5
M106 S251.4
G0 X119.595 Y105.736 Z0.81
;TYPE:SUPPORT
G1 F1012.5 X116.911 Y103.052 E16.99471
G1 X116.911 Y105.032 E17.43923
G1 X118.25 Y106.371 E17.86437
G1 X118.22 Y106.397 E17.87328
G1 X117.927 Y106.754 E17.97697
G1 X117.709 Y107.159 E18.08023
G1 X117.576 Y107.603 E18.18428
G1 X117.569 Y107.67 E18.19941
G1 X116.911 Y107.012 E18.40832
G1 X116.911 Y108.992 E18.85284
G1 X118.062 Y110.143 E19.21828
G1 X116.911 Y110.143 E19.47669
G0 F7200 X121.546 Y109.723
G1 F1012.5 X121.191 Y110.017 E19.58017
G1 X120.954 Y110.143 E19.64043
G1 X122.022 Y110.143 E19.88021
G1 X121.572 Y109.692 E20.02324
G1 X121.84 Y109.368 E20.11764
G1 X122.057 Y108.961 E20.22119
G1 X122.191 Y108.52 E20.32467
G1 X122.207 Y108.348 E20.36345
G1 X124.002 Y110.143 E20.93336
G1 X125.306 Y110.143 E21.22611
G1 X125.071 Y110.017 E21.28598
G1 X124.715 Y109.723 E21.38963
G1 X124.423 Y109.368 E21.49283
G1 X124.205 Y108.961 E21.59649
G1 X124.072 Y108.518 E21.70033
G1 X124.04 Y108.201 E21.77186
G1 X117.696 Y101.857 E23.78607
G1 X119.676 Y101.857 E24.2306
G1 X124.49 Y106.671 E25.75904
G1 X124.715 Y106.397 E25.83863
G1 X125.07 Y106.104 E25.94197
G1 X125.478 Y105.887 E26.04572
G1 X125.638 Y105.839 E26.08322
G1 X121.656 Y101.857 E27.34751
G1 X123.636 Y101.857 E27.79203
G1 X129.087 Y107.308 E29.52272
G1 X129.087 Y105.328 E29.96724
G1 X125.616 Y101.857 E31.06928
G1 X127.596 Y101.857 E31.5138
G1 X129.087 Y103.348 E31.98719
G0 F7200 X129.087 Y101.856
G1 F1012.5 X127.596 Y101.857 E32.32193
G0 F7200 X125.92 Y105.754
G1 F1012.5 X126.379 Y105.707 E32.42552
G1 X126.838 Y105.754 E32.5291
G1 X127.279 Y105.887 E32.63252
G1 X127.685 Y106.104 E32.73587
G1 X128.043 Y106.397 E32.83973
G1 X128.334 Y106.754 E32.94313
G1 X128.552 Y107.159 E33.04639
G1 X128.686 Y107.603 E33.15051
G1 X128.732 Y108.06 E33.25363
G1 X128.685 Y108.518 E33.35699
G1 X128.6 Y108.801 E33.42333
G1 X129.087 Y109.288 E33.57795
G1 X129.087 Y110.142 E33.76968
G1 X127.961 Y110.142 E34.02248
G1 X127.769 Y109.95 E34.08344
G0 F7200 X127.686 Y110.017
G1 F1012.5 X127.451 Y110.143 E34.1433
G1 X127.961 Y110.142 E34.2578
G0 F7200 X125.954 Y109.673
G0 X122.207 Y108.348
G1 F1012.5 X122.236 Y108.06 E34.32278
G1 X122.19 Y107.601 E34.42635
G1 X122.057 Y107.159 E34.52997
G1 X121.84 Y106.754 E34.63313
G1 X121.547 Y106.398 E34.73664
G1 X121.191 Y106.104 E34.8403
G1 X120.783 Y105.887 E34.94404
G1 X120.343 Y105.754 E35.04724
G1 X119.884 Y105.708 E35.15081
G0 F7200 X119.032 Y106.2
;TIME_ELAPSED:19.800956
;LAYER:-4
M106 S189.3
G0 X119.032 Y106.2 Z1.11
;TYPE:SUPPORT-INTERFACE
G1 F1350 X116.612 Y106.2 E35.33191
G1 X116.612 Y106.8 E35.37681
G1 X118.277 Y106.8 E35.50141
G1 X118.178 Y106.921 E35.51311
G1 X117.989 Y107.276 E35.54321
G1 X117.951 Y107.4 E35.55291
G1 X116.612 Y107.4 E35.65312
G1 X116.612 Y108 E35.69802
G1 X117.839 Y108 E35.78984
G1 X117.834 Y108.061 E35.79442
G1 X117.872 Y108.461 E35.82449
G1 X117.915 Y108.6 E35.83538
G1 X116.612 Y108.6 E35.93289
G1 X116.612 Y109.2 E35.97779
G1 X118.178 Y109.2 E36.09498
G1 X118.434 Y109.511 E36.12513
G1 X118.744 Y109.767 E36.15521
G1 X118.807 Y109.8 E36.16053
G1 X116.612 Y109.8 E36.3248
G1 X116.612 Y110.4 E36.3697
G1 X129.388 Y110.4 E37.3258
G1 X129.388 Y110.442 E37.32894
G1 X116.612 Y110.443 E38.28503
G0 F7200 X118.807 Y109.8
G1 F1350 X119.1 Y109.956 E38.30987
G1 X119.484 Y110.072 E38.33989
G1 X119.885 Y110.111 E38.37004
G1 X120.285 Y110.072 E38.40012
G1 X120.669 Y109.956 E38.43014
G0 F7200 X120.962 Y109.8
G1 F1350 X125.306 Y109.8 E38.75522
G1 X125.595 Y109.956 E38.7798
G1 X125.98 Y110.072 E38.80989
G1 X126.38 Y110.111 E38.83997
G1 X126.781 Y110.072 E38.87012
G1 X127.165 Y109.956 E38.90014
G0 F7200 X127.457 Y109.8
G1 F1350 X129.388 Y109.8 E39.04465
G1 X129.388 Y109.2 E39.08955
G1 X128.086 Y109.2 E39.18698
G1 X128.276 Y108.845 E39.21711
G1 X128.35 Y108.6 E39.23627
G1 X129.388 Y108.6 E39.31395
G1 X129.388 Y108 E39.35885
G1 X128.425 Y108 E39.43091
G1 X128.392 Y107.66 E39.45648
G1 X128.313 Y107.4 E39.47681
G1 X129.388 Y107.4 E39.55726
G1 X129.388 Y106.8 E39.60216
G1 X127.987 Y106.8 E39.70701
G1 X127.831 Y106.61 E39.7254
G1 X127.52 Y106.354 E39.75555
G1 X127.232 Y106.2 E39.77999
G1 X129.388 Y106.2 E39.94133
G1 X129.388 Y105.6 E39.98623
G1 X116.612 Y105.6 E40.94233
G1 X116.612 Y105 E40.98723
G1 X129.388 Y105 E41.94333
G1 X129.388 Y104.4 E41.98823
G1 X116.612 Y104.4 E42.94432
G1 X116.612 Y103.8 E42.98923
G1 X129.388 Y103.8 E43.94532
G1 X129.388 Y103.2 E43.99022
G1 X116.612 Y103.2 E44.94632
G1 X116.612 Y102.6 E44.99122
G1 X129.388 Y102.6 E45.94732
G1 X129.388 Y102 E45.99222
G1 X116.612 Y102 E46.94831
G1 X116.612 Y101.557 E46.98146
G1 X129.388 Y101.556 E47.93756
G0 F7200 X127.232 Y106.2
G1 F1350 X127.165 Y106.164 E47.94325
G1 X126.781 Y106.048 E47.97327
G1 X126.38 Y106.009 E48.00342
G1 X125.98 Y106.048 E48.0335
G1 X125.595 Y106.164 E48.06359
G0 F7200 X125.528 Y106.2
G1 F1350 X120.736 Y106.2 E48.4222
G1 X120.669 Y106.164 E48.42789
G1 X120.285 Y106.048 E48.45791
G1 X119.885 Y106.009 E48.48799
G1 X119.484 Y106.048 E48.51814
G1 X119.1 Y106.164 E48.54816
G0 F7200 X120.736 Y106.2
G1 F1350 X121.025 Y106.354 E48.57266
G1 X121.335 Y106.61 E48.60275
G1 X121.491 Y106.8 E48.62115
G1 X124.773 Y106.8 E48.86676
G1 X124.675 Y106.92 E48.87835
G1 X124.484 Y107.275 E48.90852
G1 X124.446 Y107.4 E48.9183
G1 X121.817 Y107.4 E49.11504
G1 X121.897 Y107.66 E49.1354
G1 X121.93 Y108 E49.16096
G1 X124.334 Y108 E49.34086
G1 X124.329 Y108.06 E49.34537
G1 X124.368 Y108.46 E49.37545
G1 X124.411 Y108.6 E49.38641
G1 X121.855 Y108.6 E49.57768
G1 X121.78 Y108.845 E49.59686
G1 X121.591 Y109.2 E49.62696
G1 X124.675 Y109.2 E49.85775
G1 X124.93 Y109.51 E49.88779
G1 X125.24 Y109.765 E49.91783
G1 X125.306 Y109.8 E49.92342
G0 F7200 X116.611 Y101.556
;TIME_ELAPSED:29.027690
;LAYER:-3
M106 S192.2
G0 X116.611 Y101.556 Z1.41
;TYPE:SUPPORT-INTERFACE
G1 F1350 X116.611 Y110.442 E50.5884
G1 X116.999 Y110.442 E50.61744
G1 X116.999 Y101.556 E51.28243
G0 F7200 X118.199 Y106.894
G1 F1350 X118.433 Y106.61 E51.30996
G1 X118.743 Y106.354 E51.34005
G1 X118.799 Y106.325 E51.34477
G1 X118.799 Y101.556 E51.70166
G1 X119.399 Y101.556 E51.74656
G1 X119.399 Y106.074 E52.08467
G1 X119.483 Y106.048 E52.09125
G1 X119.884 Y106.009 E52.1214
G1 X119.999 Y106.02 E52.13004
G1 X119.999 Y101.556 E52.46411
G1 X120.599 Y101.556 E52.50901
G1 X120.599 Y106.143 E52.85228
G1 X120.668 Y106.164 E52.85768
G1 X121.024 Y106.354 E52.88787
G1 X121.199 Y106.498 E52.90483
G1 X121.199 Y101.556 E53.27467
G1 X121.799 Y101.556 E53.31957
G1 X121.799 Y107.34 E53.75242
G0 F7200 X121.896 Y107.66
G1 F1350 X121.935 Y108.06 E53.7825
G1 X121.896 Y108.46 E53.81257
G1 X121.799 Y108.779 E53.83752
G1 X121.799 Y110.442 E53.96197
G1 X122.399 Y110.442 E54.00688
G1 X122.399 Y101.556 E54.67186
G1 X122.999 Y101.556 E54.71676
G1 X122.999 Y110.442 E55.38175
G1 X123.599 Y110.442 E55.42665
G1 X123.599 Y101.556 E56.09164
G1 X124.199 Y101.556 E56.13654
G1 X124.199 Y110.442 E56.80152
G1 X124.799 Y110.442 E56.84643
G1 X124.799 Y109.352 E56.928
G1 X124.929 Y109.51 E56.94331
G1 X125.239 Y109.765 E56.97335
G1 X125.399 Y109.852 E56.98698
G1 X125.399 Y110.442 E57.03113
G1 X125.999 Y110.442 E57.07603
G1 X125.999 Y110.074 E57.10357
G1 X126.379 Y110.111 E57.13214
G1 X126.599 Y110.089 E57.14869
G1 X126.599 Y110.442 E57.1751
G1 X127.199 Y110.442 E57.22001
G1 X127.199 Y109.937 E57.2578
G1 X127.519 Y109.766 E57.28495
G1 X127.799 Y109.535 E57.31211
G1 X127.799 Y110.442 E57.37999
G1 X128.399 Y110.442 E57.42489
G1 X128.399 Y108.377 E57.57943
G1 X128.43 Y108.06 E57.60326
G0 F7200 X128.999 Y110.442
G1 F1350 X128.999 Y101.556 E58.26825
G1 X129.387 Y101.556 E58.29728
G1 X129.387 Y110.442 E58.96227
G0 F7200 X125.731 Y109.62
G0 X124.674 Y109.2
G1 F1350 X124.483 Y108.845 E58.99244
G1 X124.367 Y108.46 E59.02253
G1 X124.328 Y108.06 E59.05261
G1 X124.367 Y107.66 E59.08268
G1 X124.483 Y107.275 E59.11277
G1 X124.674 Y106.92 E59.14294
G1 X124.799 Y106.769 E59.15761
G1 X124.799 Y101.556 E59.54773
G1 X125.399 Y101.556 E59.59263
G1 X125.399 Y106.269 E59.94533
G1 X125.594 Y106.164 E59.9619
G1 X125.979 Y106.048 E59.99199
G1 X125.999 Y106.047 E59.99349
G1 X125.999 Y101.556 E60.32958
G1 X126.599 Y101.556 E60.37448
G1 X126.599 Y106.03 E60.70929
G1 X126.78 Y106.048 E60.7229
G1 X127.164 Y106.164 E60.75292
G1 X127.199 Y106.182 E60.75587
G1 X127.199 Y101.556 E61.10205
G1 X127.799 Y101.556 E61.14696
G1 X127.799 Y106.584 E61.52323
G1 X127.83 Y106.61 E61.52626
G1 X128.085 Y106.92 E61.55629
G1 X128.275 Y107.275 E61.58643
G1 X128.391 Y107.66 E61.61652
G1 X128.399 Y107.742 E61.62268
G1 X128.399 Y101.556 E62.08561
G1 X128.999 Y101.556 E62.13052
G0 F7200 X121.799 Y108.779
G1 F1350 X121.779 Y108.845 E62.13568
G1 X121.59 Y109.2 E62.16577
G1 X121.334 Y109.51 E62.19586
G1 X121.199 Y109.621 E62.20894
G1 X121.199 Y110.442 E62.27038
G1 X120.599 Y110.442 E62.31528
G1 X120.599 Y109.976 E62.35015
G1 X120.284 Y110.072 E62.3748
G1 X119.999 Y110.099 E62.39622
G1 X119.999 Y110.442 E62.42189
G1 X119.399 Y110.442 E62.46679
G1 X119.399 Y110.047 E62.49635
G1 X119.099 Y109.956 E62.51981
G1 X118.799 Y109.796 E62.54526
G1 X118.799 Y110.442 E62.5936
G1 X118.199 Y110.442 E62.6385
G1 X118.199 Y109.227 E62.72942
G0 F7200 X118.177 Y109.2
G1 F1350 X117.988 Y108.845 E62.75952
G1 X117.871 Y108.46 E62.78963
G1 X117.833 Y108.06 E62.8197
G1 X117.871 Y107.66 E62.84977
G1 X117.988 Y107.275 E62.87988
G1 X118.177 Y106.92 E62.90998
G1 X118.199 Y106.894 E62.91253
G1 X118.199 Y101.556 E63.312
G1 X117.599 Y101.556 E63.3569
G1 X117.599 Y110.442 E64.02189
G1 X116.999 Y110.442 E64.06679
G0 F7200 X118.744 Y109.767
;TIME_ELAPSED:37.932559
;LAYER:0
M106 S255
;MESH:sensorX.stl(1)
G0 F3600 X118.744 Y109.767 Z2.01
;TYPE:WALL-OUTER
G1 F1350 X118.9 Y109.85 E64.08001
G1 X119.1 Y109.957 E64.09699
G1 X119.484 Y110.073 E64.12701
G1 X119.885 Y110.112 E64.15716
G1 X120.285 Y110.073 E64.18723
G1 X120.669 Y109.957 E64.21725
G1 X120.869 Y109.85 E64.23423
G1 X121.025 Y109.767 E64.24745
G1 X121.335 Y109.511 E64.27754
G1 X121.591 Y109.201 E64.30763
G1 X121.78 Y108.846 E64.33772
G1 X121.897 Y108.461 E64.36784
G1 X121.936 Y108.061 E64.39791
G1 X121.897 Y107.661 E64.42799
G1 X121.78 Y107.276 E64.4581
G1 X121.591 Y106.921 E64.4882
G1 X121.335 Y106.611 E64.51828
G1 X121.025 Y106.355 E64.54837
G1 X120.669 Y106.165 E64.57857
G1 X120.285 Y106.049 E64.60859
G1 X119.885 Y106.01 E64.63866
G1 X119.484 Y106.049 E64.66881
G1 X119.1 Y106.165 E64.69883
G1 X118.744 Y106.355 E64.72903
G1 X118.434 Y106.611 E64.75912
G1 X118.178 Y106.921 E64.78921
G1 X117.989 Y107.276 E64.8193
G1 X117.872 Y107.661 E64.84942
G1 X117.834 Y108.061 E64.87948
G1 X117.872 Y108.461 E64.90955
G1 X117.989 Y108.846 E64.93967
G1 X118.178 Y109.201 E64.96976
G1 X118.434 Y109.511 E64.99985
G1 X118.744 Y109.767 E65.02994
G0 F3600 X118.9 Y109.85
G0 X119.009 Y109.908
G0 X118.962 Y109.996
G0 X119.885 Y110.152
G0 X120.292 Y110.112
G0 X120.684 Y109.993
G0 X120.889 Y109.885
G0 X125.557 Y106.073
G0 X125.595 Y106.165
G1 F1350 X125.24 Y106.356 E65.0601
G1 X124.93 Y106.611 E65.09014
G1 X124.675 Y106.921 E65.12018
G1 X124.484 Y107.276 E65.15035
G1 X124.368 Y107.661 E65.18044
G1 X124.329 Y108.061 E65.21052
G1 X124.368 Y108.461 E65.24059
G1 X124.484 Y108.846 E65.27068
G1 X124.675 Y109.201 E65.30085
G1 X124.93 Y109.511 E65.33089
G1 X125.24 Y109.766 E65.36093
G1 X125.396 Y109.85 E65.37419
G1 X125.595 Y109.957 E65.3911
G1 X125.98 Y110.073 E65.42119
G1 X126.38 Y110.112 E65.45126
G1 X126.781 Y110.073 E65.48142
G1 X127.165 Y109.957 E65.51143
G1 X127.365 Y109.85 E65.52841
G1 X127.52 Y109.767 E65.54157
G1 X127.831 Y109.511 E65.57171
G1 X128.086 Y109.201 E65.60175
G1 X128.276 Y108.846 E65.63188
G1 X128.392 Y108.461 E65.66197
G1 X128.431 Y108.061 E65.69205
G1 X128.392 Y107.661 E65.72213
G1 X128.276 Y107.276 E65.75222
G1 X128.086 Y106.921 E65.78235
G1 X127.831 Y106.611 E65.81239
G1 X127.52 Y106.355 E65.84253
G1 X127.165 Y106.165 E65.87267
G1 X126.781 Y106.049 E65.90268
G1 X126.38 Y106.01 E65.93284
G1 X125.98 Y106.049 E65.96291
G1 X125.595 Y106.165 E65.993
G0 F3600 X125.331 Y106.307
G0 X125.285 Y106.218
G0 X125.973 Y106.01
G0 X126.38 Y105.97
G0 X126.788 Y106.01
G0 X127.18 Y106.129
G0 X127.542 Y106.322
G0 X127.859 Y106.583
G0 X128.119 Y106.899
G0 X128.227 Y107.103
G0 X129.318 Y110.373
G0 X129.388 Y110.443
G1 F1350 X127.392 Y110.443 E66.14237
G1 X127.165 Y110.443 E66.1571
G1 X126.781 Y110.443 E66.17751
G1 X126.38 Y110.443 E66.19504
G1 X125.98 Y110.443 E66.21253
G1 X125.595 Y110.443 E66.23299
G1 X125.369 Y110.443 E66.24835
G1 X120.896 Y110.443 E66.58309
G1 X120.669 Y110.443 E66.59781
G1 X120.285 Y110.443 E66.61823
G1 X119.885 Y110.443 E66.63571
G1 X119.484 Y110.443 E66.65324
G1 X119.1 Y110.443 E66.67366
G1 X118.873 Y110.443 E66.68908
G1 X116.612 Y110.443 E66.85828
G1 X116.612 Y101.557 E67.52327
G1 X129.388 Y101.557 E68.47936
G1 X129.388 Y110.443 E69.14435
G0 F3600 X129.088 Y110.443
G0 X128.798 Y109.853
;TYPE:SKIN
G1 F1350 X128.313 Y109.853 E69.18065
G1 X128.579 Y109.531 E69.2119
G1 X128.798 Y109.121 E69.24669
G1 X128.798 Y109.853 E69.30147
G0 F3600 X128.798 Y107.001
G1 F1350 X128.579 Y106.591 E69.33625
G1 X128.25 Y106.192 E69.37495
G1 X127.85 Y105.863 E69.41371
G1 X127.392 Y105.617 E69.45262
G1 X126.895 Y105.467 E69.49147
G1 X126.38 Y105.418 E69.53018
G1 X125.866 Y105.467 E69.56882
G1 X125.367 Y105.617 E69.60781
G1 X124.909 Y105.864 E69.64676
G1 X124.511 Y106.192 E69.68535
