;FLAVOR:Marlin
;TIME:11555
;Filament used: 22.6515m
;Layer height: 0.3
;POSTPROCESSED
;Generated with Cura_SteamEngine 3.6.0
M104 S200
M105
M109 S200
M82 ;absolute extrusion mode
G28 ;Home
G1 Z15.0 F6000 ;Move the platform down 15mm
;Prime the extruder
G92 E0
G1 F200 E3
G92 E0
G92 E0
G1 F1500 E-6.5
;LAYER_COUNT:30
;LAYER:-6
M107
G0 F7200 X80.973 Y28.265 Z0.36
;TYPE:SUPPORT-INTERFACE
G1 F1500 E0
G1 F1012.5 X169.027 Y28.265 E15.81491
G1 X223.142 Y84.927 E29.88728
G1 X223.143 Y116.802 E35.61218
G1 X223.103 Y116.796 E35.61945
G1 X211.743 Y151.735 E42.21802
G1 X38.257 Y151.735 E73.37692
G1 X26.897 Y116.796 E79.97549
G1 X26.858 Y116.802 E79.98258
G1 X26.857 Y84.928 E85.7073
G1 X80.973 Y28.265 E99.77992
G0 F7200 X70.486 Y52.106
G1 F1012.5 X67.174 Y56.379 E100.75091
G1 X64.26 Y60.716 E101.68935
G1 X61.854 Y64.96 E102.56557
G1 X60.047 Y68.951 E103.35242
G1 X58.907 Y72.553 E104.03098
G1 X58.488 Y75.654 E104.593
G1 X58.844 Y78.174 E105.0501
G1 X60.06 Y79.984 E105.44173
G1 X62.063 Y80.843 E105.83317
G1 X64.605 Y80.726 E106.2902
G1 X67.574 Y79.739 E106.85214
G1 X70.903 Y77.953 E107.53066
G1 X74.492 Y75.438 E108.31778
G1 X78.215 Y72.287 E109.19379
G1 X81.94 Y68.62 E110.1326
G1 X85.524 Y64.574 E111.10338
G1 X88.837 Y60.301 E112.07449
G1 X91.751 Y55.963 E113.01308
G1 X94.157 Y51.72 E113.88913
G1 X95.964 Y47.729 E114.67598
G1 X97.104 Y44.127 E115.35455
G1 X97.523 Y41.026 E115.91656
G1 X97.167 Y38.506 E116.37366
G1 X95.951 Y36.696 E116.7653
G1 X93.948 Y35.837 E117.15673
G1 X91.406 Y35.953 E117.61376
G1 X88.436 Y36.94 E118.17587
G1 X85.108 Y38.727 E118.85432
G1 X81.519 Y41.242 E119.64143
G1 X77.795 Y44.393 E120.51758
G1 X74.071 Y48.059 E121.45614
G1 X70.486 Y52.106 E122.42717
G0 F7200 X64.82 Y61.067
G0 X62.441 Y65.263
G0 X60.664 Y69.189
G0 X59.554 Y72.698
G0 X59.155 Y75.651
G0 X59.478 Y77.931
G0 X60.501 Y79.452
G0 X62.184 Y80.175
G0 X64.046 Y80.091
G0 X72.185 Y79.25
G1 F1012.5 X71.764 Y79.763 E122.54637
G1 X71.451 Y80.348 E122.66553
G1 X71.258 Y80.983 E122.78473
G1 X71.193 Y81.644 E122.90402
G1 X71.258 Y82.305 E123.02331
G1 X71.451 Y82.94 E123.14251
G1 X71.764 Y83.525 E123.26167
G1 X72.185 Y84.038 E123.38087
G1 X72.698 Y84.459 E123.50006
G1 X73.283 Y84.772 E123.61922
G1 X73.918 Y84.964 E123.73837
G1 X74.579 Y85.03 E123.85768
G1 X75.24 Y84.964 E123.97699
G1 X75.875 Y84.772 E124.09614
G1 X76.46 Y84.459 E124.2153
G1 X76.973 Y84.038 E124.33449
G1 X77.394 Y83.525 E124.45368
G1 X77.707 Y82.94 E124.57284
G1 X77.9 Y82.305 E124.69204
G1 X77.965 Y81.644 E124.81134
G1 X77.9 Y80.983 E124.93063
G1 X77.707 Y80.348 E125.04983
G1 X77.394 Y79.763 E125.16899
G1 X76.973 Y79.25 E125.28818
G1 X76.46 Y78.829 E125.40737
G1 X75.89 Y78.524 E125.52348
G1 X75.241 Y78.323 E125.64551
G1 X74.579 Y78.258 E125.76498
G1 X73.919 Y78.323 E125.88409
G1 X73.283 Y78.515 E126.00341
G1 X72.698 Y78.829 E126.12266
G1 X72.185 Y79.25 E126.24185
G0 F7200 X71.857 Y81.644
G0 X71.909 Y82.175
G0 X72.035 Y82.589
G0 X77.297 Y91.829
G1 F1012.5 X71.944 Y97.725 E127.67213
G1 X68.627 Y104.164 E128.97304
G1 X67.502 Y110.89 E130.19784
G1 X68.627 Y117.617 E131.42282
G1 X71.944 Y124.055 E132.72357
G1 X77.297 Y129.952 E134.15398
G1 X84.465 Y135.096 E135.73859
G1 X93.172 Y139.303 E137.47538
G1 X103.086 Y142.424 E139.34213
G1 X113.831 Y144.343 E141.30252
G1 X125 Y144.991 E143.3119
G1 X136.169 Y144.343 E145.32128
G1 X146.914 Y142.424 E147.28167
G1 X156.828 Y139.303 E149.14842
G1 X165.535 Y135.096 E150.88521
G1 X172.703 Y129.952 E152.46982
G1 X178.056 Y124.055 E153.90024
G1 X181.373 Y117.617 E155.20098
G1 X182.498 Y110.89 E156.42596
G1 X181.373 Y104.164 E157.65076
G1 X178.056 Y97.725 E158.95167
G1 X172.703 Y91.829 E160.38195
G1 X165.535 Y86.684 E161.96666
G1 X156.828 Y82.477 E163.70346
G1 X146.914 Y79.356 E165.57021
G1 X136.169 Y77.437 E167.5306
G1 X125 Y76.789 E169.53997
G1 X113.831 Y77.437 E171.54935
G1 X103.086 Y79.356 E173.50974
G1 X93.172 Y82.477 E175.37649
G1 X84.465 Y86.684 E177.11328
G1 X77.297 Y91.829 E178.698
G0 F7200 X43.248 Y102.924
G1 F1012.5 X42.662 Y103.237 E178.81732
G1 X42.149 Y103.658 E178.93651
G1 X41.729 Y104.171 E179.05559
G1 X41.415 Y104.756 E179.17484
G1 X41.223 Y105.392 E179.29416
G1 X41.158 Y106.052 E179.41327
G1 X41.223 Y106.712 E179.53238
G1 X41.415 Y107.348 E179.6517
G1 X41.729 Y107.933 E179.77095
G1 X42.149 Y108.446 E179.89003
G1 X42.662 Y108.867 E180.00922
G1 X43.249 Y109.18 E180.1287
G1 X43.866 Y109.367 E180.24449
G1 X44.523 Y109.435 E180.36312
G1 X45.183 Y109.376 E180.48213
G1 X45.819 Y109.187 E180.6013
G1 X46.407 Y108.878 E180.7206
G1 X46.921 Y108.46 E180.83959
G1 X47.346 Y107.95 E180.95883
G1 X47.662 Y107.366 E181.07809
G1 X47.864 Y106.715 E181.20051
G1 X47.93 Y106.052 E181.32017
G1 X47.864 Y105.391 E181.43948
G1 X47.672 Y104.756 E181.55863
G1 X47.359 Y104.171 E181.67779
G1 X46.937 Y103.658 E181.7971
G1 X46.424 Y103.236 E181.91641
G1 X45.822 Y102.919 E182.0386
G1 X45.205 Y102.731 E182.15445
G1 X44.544 Y102.666 E182.27374
G1 X43.883 Y102.731 E182.39303
G1 X43.248 Y102.924 E182.51223
G0 F7200 X42.03 Y105.008
G0 X41.874 Y105.521
G0 X41.822 Y106.052
G0 X41.874 Y106.583
G0 X42 Y106.997
G0 X49.099 Y119.771
G1 F1012.5 X47.988 Y120.579 E182.75896
G1 X47.495 Y121.863 E183.00599
G1 X47.623 Y123.4 E183.283
G1 X48.268 Y125.119 E183.61276
G1 X49.374 Y127.004 E184.00529
G1 X50.897 Y129.009 E184.4575
G1 X52.78 Y131.073 E184.9593
G1 X54.958 Y133.122 E185.49638
G1 X57.347 Y135.082 E186.05138
G1 X59.859 Y136.882 E186.60642
G1 X62.402 Y138.453 E187.14328
G1 X64.883 Y139.738 E187.6451
G1 X67.215 Y140.689 E188.09742
G1 X69.322 Y141.268 E188.48988
G1 X71.15 Y141.445 E188.81973
G1 X72.667 Y141.172 E189.09657
G1 X73.778 Y140.363 E189.34341
G1 X74.272 Y139.08 E189.59033
G1 X74.143 Y137.543 E189.86735
G1 X73.499 Y135.823 E190.19722
G1 X72.392 Y133.939 E190.58968
G1 X70.87 Y131.933 E191.04193
G1 X68.986 Y129.87 E191.54372
G1 X66.809 Y127.82 E192.08079
G1 X64.42 Y125.86 E192.63579
G1 X61.908 Y124.06 E193.19083
G1 X59.365 Y122.49 E193.7276
G1 X56.884 Y121.204 E194.2295
G1 X54.552 Y120.253 E194.68183
G1 X52.445 Y119.674 E195.07428
G1 X50.617 Y119.497 E195.40413
G1 X49.099 Y119.771 E195.68118
G0 F7200 X43.248 Y132.082
G1 F1012.5 X42.662 Y132.395 E195.8005
G1 X42.149 Y132.816 E195.91969
G1 X41.729 Y133.329 E196.03877
G1 X41.415 Y133.914 E196.15802
G1 X41.223 Y134.55 E196.27734
G1 X41.158 Y135.21 E196.39645
G1 X41.223 Y135.87 E196.51556
G1 X41.415 Y136.506 E196.63488
G1 X41.729 Y137.091 E196.75413
G1 X42.149 Y137.604 E196.87321
G1 X42.648 Y138.014 E196.9892
G1 X43.23 Y138.328 E197.10798
G1 X43.881 Y138.53 E197.2304
G1 X44.544 Y138.596 E197.35006
G1 X45.205 Y138.53 E197.46937
G1 X45.84 Y138.338 E197.58852
G1 X46.425 Y138.025 E197.70768
G1 X46.937 Y137.604 E197.82674
G1 X47.359 Y137.091 E197.94604
G1 X47.672 Y136.506 E198.06521
G1 X47.864 Y135.871 E198.18435
G1 X47.93 Y135.21 E198.30366
G1 X47.864 Y134.549 E198.42297
G1 X47.672 Y133.914 E198.54212
G1 X47.359 Y133.329 E198.66128
G1 X46.937 Y132.816 E198.78059
G1 X46.425 Y132.395 E198.89964
G1 X45.84 Y132.082 E199.0188
G1 X45.205 Y131.889 E199.13801
G1 X44.544 Y131.824 E199.2573
G1 X43.883 Y131.889 E199.37659
G1 X43.248 Y132.082 E199.49579
G0 F7200 X41.822 Y106.052
G0 X42.751 Y81.113
G0 X43.54 Y78.829
G1 F1012.5 X43.027 Y79.25 E199.61498
G1 X42.606 Y79.763 E199.73417
G1 X42.293 Y80.348 E199.85333
G1 X42.1 Y80.983 E199.97253
G1 X42.035 Y81.644 E200.09183
G1 X42.1 Y82.305 E200.21112
G1 X42.293 Y82.94 E200.33032
G1 X42.606 Y83.525 E200.44948
G1 X43.026 Y84.038 E200.56856
G1 X43.527 Y84.449 E200.68494
G1 X44.142 Y84.777 E200.81013
G1 X44.76 Y84.964 E200.9261
G1 X45.421 Y85.03 E201.0454
G1 X46.082 Y84.964 E201.16471
G1 X46.717 Y84.772 E201.28386
G1 X47.302 Y84.459 E201.40302
G1 X47.815 Y84.038 E201.52222
G1 X48.236 Y83.525 E201.64141
G1 X48.549 Y82.94 E201.76057
G1 X48.742 Y82.305 E201.87977
G1 X48.807 Y81.644 E201.99906
G1 X48.742 Y80.983 E202.11835
G1 X48.549 Y80.348 E202.23755
G1 X48.236 Y79.763 E202.35672
G1 X47.815 Y79.25 E202.47591
G1 X47.302 Y78.829 E202.5951
G1 X46.717 Y78.515 E202.71435
G1 X46.081 Y78.323 E202.83367
G1 X45.421 Y78.258 E202.95278
G1 X44.761 Y78.323 E203.07189
G1 X44.125 Y78.515 E203.19121
G1 X43.54 Y78.829 E203.31046
G0 F7200 X60.501 Y79.452
G0 X62.184 Y80.175
G0 X64.483 Y80.07
G0 X67.314 Y79.129
G0 X70.555 Y77.39
G0 X73.733 Y75.163
G0 X113.637 Y44.161
G1 F1012.5 X112.937 Y46.468 E203.74346
G1 X112.7 Y48.868 E204.17661
G1 X112.937 Y51.268 E204.60976
G1 X113.637 Y53.575 E205.04276
G1 X114.773 Y55.702 E205.47585
G1 X116.303 Y57.565 E205.90883
G1 X118.167 Y59.095 E206.34195
G1 X120.293 Y60.232 E206.77497
G1 X122.6 Y60.931 E207.20792
G1 X125 Y61.168 E207.64107
G1 X127.4 Y60.931 E208.07421
G1 X129.707 Y60.232 E208.50716
G1 X131.833 Y59.095 E208.94018
G1 X133.697 Y57.565 E209.3733
G1 X135.227 Y55.702 E209.80628
G1 X136.363 Y53.575 E210.23937
G1 X137.063 Y51.268 E210.67237
G1 X137.3 Y48.868 E211.10552
G1 X137.063 Y46.468 E211.53867
G1 X136.363 Y44.161 E211.97167
G1 X135.227 Y42.035 E212.4046
G1 X133.697 Y40.171 E212.83772
G1 X131.833 Y38.642 E213.27073
G1 X129.707 Y37.505 E213.70374
G1 X127.4 Y36.805 E214.13674
G1 X125 Y36.568 E214.56989
G1 X122.6 Y36.805 E215.00304
G1 X120.293 Y37.505 E215.43604
G1 X118.167 Y38.642 E215.86906
G1 X116.303 Y40.171 E216.30206
G1 X114.773 Y42.035 E216.73518
G1 X113.637 Y44.161 E217.16812
G0 F7200 X116.772 Y40.64
G0 X118.534 Y39.194
G0 X120.545 Y38.12
G0 X122.73 Y37.456
G0 X124.773 Y37.255
G0 X152.833 Y38.506
G1 F1012.5 X152.477 Y41.026 E217.62521
G1 X152.896 Y44.127 E218.18723
G1 X154.036 Y47.729 E218.86579
G1 X155.843 Y51.72 E219.65264
G1 X158.249 Y55.963 E220.5287
G1 X161.163 Y60.301 E221.46729
G1 X164.476 Y64.574 E222.43839
G1 X168.06 Y68.62 E223.40918
G1 X171.785 Y72.287 E224.34799
G1 X175.508 Y75.438 E225.224
G1 X179.097 Y77.953 E226.01112
G1 X182.426 Y79.739 E226.68963
G1 X185.395 Y80.726 E227.25157
G1 X187.937 Y80.843 E227.70861
G1 X189.94 Y79.984 E228.10005
G1 X191.156 Y78.174 E228.49168
G1 X191.512 Y75.654 E228.94878
G1 X191.093 Y72.553 E229.51079
G1 X189.953 Y68.951 E230.18936
G1 X188.146 Y64.96 E230.97621
G1 X185.74 Y60.716 E231.85242
G1 X182.826 Y56.379 E232.79086
G1 X179.514 Y52.106 E233.76186
G1 X175.929 Y48.059 E234.73289
G1 X172.205 Y44.393 E235.67145
G1 X168.481 Y41.242 E236.5476
G1 X164.892 Y38.727 E237.33472
G1 X161.564 Y36.94 E238.01316
G1 X158.594 Y35.953 E238.57527
G1 X156.052 Y35.837 E239.0323
G1 X154.049 Y36.696 E239.42373
G1 X152.833 Y38.506 E239.81537
G0 F7200 X153.543 Y43.982
G0 X154.653 Y47.491
G0 X156.252 Y51.024
G0 X172.304 Y80.33
G1 F1012.5 X172.1 Y80.981 E239.9379
G1 X172.035 Y81.644 E240.05755
G1 X172.1 Y82.305 E240.17684
G1 X172.293 Y82.94 E240.29604
G1 X172.606 Y83.525 E240.4152
G1 X173.027 Y84.038 E240.53439
G1 X173.54 Y84.459 E240.65359
G1 X174.125 Y84.772 E240.77275
G1 X174.76 Y84.964 E240.8919
G1 X175.421 Y85.03 E241.01121
G1 X176.082 Y84.964 E241.13051
G1 X176.717 Y84.772 E241.24966
G1 X177.302 Y84.459 E241.36883
G1 X177.815 Y84.038 E241.48802
G1 X178.236 Y83.525 E241.60721
G1 X178.549 Y82.94 E241.72637
G1 X178.742 Y82.305 E241.84557
G1 X178.807 Y81.644 E241.96486
G1 X178.742 Y80.983 E242.08415
G1 X178.549 Y80.348 E242.20336
G1 X178.236 Y79.763 E242.32252
G1 X177.815 Y79.25 E242.44171
G1 X177.302 Y78.829 E242.5609
G1 X176.717 Y78.515 E242.68015
G1 X176.081 Y78.323 E242.79947
G1 X175.421 Y78.258 E242.91858
G1 X174.761 Y78.323 E243.03769
G1 X174.143 Y78.509 E243.15361
G1 X173.558 Y78.818 E243.27243
G1 X173.043 Y79.236 E243.39156
G1 X172.619 Y79.746 E243.51068
G1 X172.304 Y80.33 E243.62986
G0 F7200 X174.393 Y79.124
G0 X174.89 Y78.974
G0 X175.421 Y78.922
G0 X175.952 Y78.974
G0 X176.465 Y79.13
G0 X176.935 Y79.381
G0 X177.346 Y79.719
G0 X177.595 Y80.064
G0 X201.462 Y80.33
G1 F1012.5 X201.258 Y80.981 E243.75239
G1 X201.193 Y81.644 E243.87203
G1 X201.258 Y82.305 E243.99133
G1 X201.451 Y82.94 E244.11053
G1 X201.764 Y83.525 E244.22969
G1 X202.185 Y84.038 E244.34888
G1 X202.698 Y84.459 E244.46807
G1 X203.283 Y84.772 E244.58724
G1 X203.918 Y84.964 E244.70638
G1 X204.579 Y85.03 E244.82569
G1 X205.24 Y84.964 E244.945
G1 X205.875 Y84.772 E245.06415
G1 X206.46 Y84.459 E245.18331
G1 X206.973 Y84.038 E245.3025
G1 X207.394 Y83.525 E245.4217
G1 X207.707 Y82.94 E245.54086
G1 X207.9 Y82.305 E245.66006
G1 X207.965 Y81.644 E245.77935
G1 X207.9 Y80.983 E245.89864
G1 X207.707 Y80.348 E246.01784
G1 X207.394 Y79.763 E246.137
G1 X206.973 Y79.25 E246.2562
G1 X206.46 Y78.829 E246.37539
G1 X205.875 Y78.515 E246.49464
G1 X205.239 Y78.323 E246.61396
G1 X204.597 Y78.26 E246.72982
G1 X203.94 Y78.319 E246.84829
G1 X203.303 Y78.508 E246.96763
G1 X202.715 Y78.818 E247.08702
G1 X202.201 Y79.236 E247.20601
G1 X201.777 Y79.746 E247.32512
G1 X201.462 Y80.33 E247.4443
G0 F7200 X201.227 Y104.756
G1 F1012.5 X201.035 Y105.391 E247.56345
G1 X200.969 Y106.052 E247.68276
G1 X201.035 Y106.713 E247.80207
G1 X201.227 Y107.348 E247.92121
G1 X201.54 Y107.933 E248.04038
G1 X201.961 Y108.446 E248.15957
G1 X202.474 Y108.867 E248.27876
G1 X203.059 Y109.18 E248.39792
G1 X203.694 Y109.372 E248.51707
G1 X204.355 Y109.438 E248.63638
G1 X205.016 Y109.372 E248.75569
G1 X205.651 Y109.18 E248.87484
G1 X206.236 Y108.867 E248.994
G1 X206.749 Y108.447 E249.11308
G1 X207.16 Y107.947 E249.22933
G1 X207.472 Y107.366 E249.34777
G1 X207.676 Y106.715 E249.4703
G1 X207.741 Y106.052 E249.58995
G1 X207.676 Y105.391 E249.70924
G1 X207.483 Y104.756 E249.82844
G1 X207.17 Y104.171 E249.9476
G1 X206.749 Y103.658 E250.06679
G1 X206.236 Y103.237 E250.18599
G1 X205.651 Y102.924 E250.30515
G1 X205.016 Y102.731 E250.42435
G1 X204.355 Y102.666 E250.54364
G1 X203.694 Y102.731 E250.66293
G1 X203.059 Y102.924 E250.78213
G1 X202.474 Y103.237 E250.90129
G1 X201.961 Y103.658 E251.02049
G1 X201.54 Y104.171 E251.13968
G1 X201.227 Y104.756 E251.25884
G0 F7200 X201.833 Y121.958
G0 X201.54 Y133.329
G1 F1012.5 X201.227 Y133.914 E251.378
G1 X201.035 Y134.549 E251.49715
G1 X200.969 Y135.21 E251.61646
G1 X201.035 Y135.871 E251.73577
G1 X201.227 Y136.506 E251.85492
G1 X201.54 Y137.091 E251.97408
G1 X201.961 Y137.604 E252.09327
G1 X202.474 Y138.025 E252.21246
G1 X203.059 Y138.338 E252.33163
G1 X203.694 Y138.53 E252.45077
G1 X204.355 Y138.596 E252.57008
G1 X205.016 Y138.53 E252.68939
G1 X205.651 Y138.338 E252.80854
G1 X206.236 Y138.025 E252.9277
G1 X206.749 Y137.604 E253.0469
G1 X207.17 Y137.091 E253.16609
G1 X207.483 Y136.506 E253.28525
G1 X207.671 Y135.888 E253.40127
G1 X207.738 Y135.231 E253.51988
G1 X207.68 Y134.571 E253.63888
G1 X207.49 Y133.934 E253.75827
G1 X207.181 Y133.347 E253.87741
G1 X206.763 Y132.832 E253.99654
G1 X206.253 Y132.408 E254.11566
G1 X205.669 Y132.093 E254.23483
G1 X205.018 Y131.889 E254.35736
G1 X204.355 Y131.824 E254.47701
G1 X203.694 Y131.889 E254.5963
G1 X203.059 Y132.082 E254.7155
G1 X202.474 Y132.395 E254.83466
G1 X201.961 Y132.816 E254.95386
G1 X201.54 Y133.329 E255.07305
G0 F7200 X182.566 Y140.064
G0 X180.562 Y140.615
G0 X178.875 Y140.778
G0 X177.601 Y140.548
G0 X176.769 Y139.942
G0 X176.4 Y138.985
G0 X176.497 Y137.82
G0 X177.608 Y133.939
G1 F1012.5 X176.501 Y135.823 E255.46551
G1 X175.857 Y137.543 E255.79538
G1 X175.728 Y139.08 E256.0724
G1 X176.222 Y140.363 E256.31932
G1 X177.333 Y141.172 E256.56616
G1 X178.85 Y141.445 E256.843
G1 X180.678 Y141.268 E257.17285
G1 X182.785 Y140.689 E257.56531
G1 X185.117 Y139.738 E258.01763
G1 X187.598 Y138.453 E258.51945
G1 X190.141 Y136.882 E259.05631
G1 X192.653 Y135.082 E259.61135
G1 X195.042 Y133.122 E260.16635
G1 X197.22 Y131.073 E260.70343
G1 X199.103 Y129.009 E261.20523
G1 X200.626 Y127.004 E261.65744
G1 X201.732 Y125.119 E262.04997
G1 X202.377 Y123.4 E262.37973
G1 X202.505 Y121.863 E262.65674
G1 X202.012 Y120.579 E262.90377
G1 X200.901 Y119.771 E263.1505
G1 X199.383 Y119.497 E263.42754
G1 X197.555 Y119.674 E263.7574
G1 X195.448 Y120.253 E264.14985
G1 X193.116 Y121.204 E264.60218
G1 X190.635 Y122.49 E265.10408
G1 X188.092 Y124.06 E265.64085
G1 X185.573 Y125.866 E266.19754
G1 X183.191 Y127.82 E266.75088
G1 X181.014 Y129.87 E267.28795
G1 X179.13 Y131.933 E267.78974
G1 X177.608 Y133.939 E268.24199
G0 F7200 X177.6 Y133.953
G1 F1012.5 X177.6 Y124.557 E269.92955
G0 F7200 X175.2 Y127.201
G1 F1012.5 X175.2 Y151.735 E274.33598
G0 F7200 X172.8 Y151.735
